src/assets/svg-icons/eye.svg

<svg width="25" height="25" viewBox="0 0 25 25" fill="none" xmlns="http://www.w3.org/2000/svg">
<path d="M24.8411 12.014C24.6178 11.7085 19.2963 4.5332 12.4999 4.5332C5.70343 4.5332 0.381739 11.7085 0.158643 12.0137C-0.052881 12.3035 -0.052881 12.6966 0.158643 12.9865C0.381739 13.292 5.70343 20.4673 12.4999 20.4673C19.2963 20.4673 24.6178 13.292 24.8411 12.9867C25.0529 12.6969 25.0529 12.3035 24.8411 12.014ZM12.4999 18.8189C7.49357 18.8189 3.15757 14.0566 1.87403 12.4997C3.15591 10.9414 7.48283 6.18155 12.4999 6.18155C17.5059 6.18155 21.8416 10.9431 23.1257 12.5008C21.8438 14.059 17.5169 18.8189 12.4999 18.8189Z" fill="black"/>
<path d="M12.4998 7.55469C9.7731 7.55469 7.55469 9.7731 7.55469 12.4998C7.55469 15.2264 9.7731 17.4448 12.4998 17.4448C15.2264 17.4448 17.4448 15.2264 17.4448 12.4998C17.4448 9.7731 15.2264 7.55469 12.4998 7.55469ZM12.4998 15.7965C10.6819 15.7965 9.20308 14.3176 9.20308 12.4998C9.20308 10.6819 10.6819 9.20308 12.4998 9.20308C14.3176 9.20308 15.7965 10.6819 15.7965 12.4998C15.7965 14.3176 14.3176 15.7965 12.4998 15.7965Z" fill="black"/>
</svg>

<svg xmlns="http://www.w3.org/2000/svg" width="25" height="25" fill="none" viewBox="0 0 25 25"><path fill="#000" d="M24.841 12.014c-.223-.305-5.545-7.48-12.341-7.48-6.797 0-12.118 7.175-12.341 7.48a.825.825 0 0 0 0 .973c.223.305 5.544 7.48 12.34 7.48 6.797 0 12.119-7.175 12.342-7.48a.824.824 0 0 0 0-.973ZM12.5 18.819c-5.006 0-9.342-4.762-10.626-6.32C3.156 10.942 7.483 6.183 12.5 6.183c5.006 0 9.342 4.761 10.626 6.319-1.282 1.558-5.61 6.318-10.626 6.318Z"/><path fill="#000" d="M12.5 7.555A4.95 4.95 0 0 0 7.555 12.5a4.95 4.95 0 0 0 4.945 4.945 4.95 4.95 0 0 0 4.945-4.945A4.95 4.95 0 0 0 12.5 7.555Zm0 8.242A3.3 3.3 0 0 1 9.203 12.5 3.3 3.3 0 0 1 12.5 9.203a3.3 3.3 0 0 1 3.296 3.297 3.3 3.3 0 0 1-3.296 3.296Z"/></svg>
